Numix-Circle/48/applications/preferences-desktop-locale.svg

<svg xmlns="http://www.w3.org/2000/svg" viewBox="0 0 48 48" xmlns:xlink="http://www.w3.org/1999/xlink">
<g transform="translate(0 -1004.3622)">
<path style="fill:#e69859;line-height:normal;color:#000" d="m 22,7.5 c -5.017634,0 -8.552924,1.9866897 -9.75,2.75 L 11.96875,8.8125 C 11.87931,8.2847204 11.305581,7.8921692 10.78125,8 c -0.505476,0.1178296 -0.8608078,0.6804387 -0.75,1.1875 l 6,30 c 0.01589,0.578008 0.622073,1.064277 1.189763,0.954401 0.567691,-0.109875 0.948665,-0.787208 0.747737,-1.329401 l -2.875,-14.4375 c 1.504271,-0.855043 4.581588,-2.25 8.65625,-2.25 2.916667,0 5.083844,0.72725 6.9375,1.46875 1.853656,0.7414 3.395833,1.53125 5.0625,1.53125 1.555556,0 2.623467,-0.25565 3.3125,-0.53125 0.689033,-0.2757 1.03125,-0.625 1.03125,-0.625 l 0.1875,-0.15625 -0.03125,-0.25 -1.75,-13.625 -0.125,-1 -0.71875,0.71875 c 0,0 -0.157783,0.1506 -0.71875,0.375 C 36.376533,10.25555 35.444444,10.5 34,10.5 32.666667,10.5 31.208844,9.78975 29.3125,9.03125 27.416156,8.27265 25.083333,7.5 22,7.5 z" transform="translate(0 1004.3622)"/>
</g>
</svg>

<svg width="48" xmlns="http://www.w3.org/2000/svg" height="48" viewBox="0 0 48 48" xmlns:xlink="http://www.w3.org/1999/xlink">
<path style="fill:#e59759" d="M 22 7.5 C 16.980469 7.5 13.445312 9.488281 12.25 10.25 L 11.96875 8.8125 C 11.878906 8.285156 11.304688 7.890625 10.78125 8 C 10.277344 8.117188 9.921875 8.679688 10.03125 9.1875 L 16.03125 39.1875 C 16.046875 39.765625 16.652344 40.25 17.222656 40.140625 C 17.789062 40.03125 18.167969 39.355469 17.96875 38.8125 L 15.09375 24.375 C 16.597656 23.519531 19.675781 22.125 23.75 22.125 C 26.667969 22.125 28.832031 22.851562 30.6875 23.59375 C 32.542969 24.335938 34.082031 25.125 35.75 25.125 C 37.304688 25.125 38.375 24.871094 39.0625 24.59375 C 39.75 24.316406 40.09375 23.96875 40.09375 23.96875 L 40.28125 23.8125 L 40.25 23.5625 L 38.5 9.9375 L 38.375 8.9375 L 37.65625 9.65625 C 37.65625 9.65625 37.5 9.808594 36.9375 10.03125 C 36.375 10.253906 35.445312 10.5 34 10.5 C 32.667969 10.5 31.207031 9.789062 29.3125 9.03125 C 27.417969 8.273438 25.082031 7.5 22 7.5 Z "/>
</svg>
